public/asset/logo-club/NBA/san-antonio-spurs.svg

<svg width="138" height="63" viewBox="0 0 138 63" fill="none" xmlns="http://www.w3.org/2000/svg">
<path d="M52.3998 39.9H55.3998L54.4998 42.2L52.3998 39.9ZM48.7998 50.1L43.9998 57.2L51.8998 54.6L55.0998 62.3L57.4998 54.1L66.3998 56.4L60.6998 49.8L67.5998 44.1L61.4998 44.5L65.5998 39.9H73.4998L82.5998 23.8V13.2H76.1998L73.0998 18.7L72.4998 22.8L67.8998 31H63.6998L67.8998 23.7V13.3H61.1998L58.1998 18.7L57.6998 22.9L50.3998 35.9L51.4998 38.8L50.0998 37.3L50.6998 45.1L42.2998 45.5L48.7998 50.1Z" fill="white"/>
<path d="M14.5 31.0001C11.9 31.7001 9.20001 32.4001 6.70001 33.1001C6.40001 33.2001 6.09999 33.3001 5.89999 33.4001V26.9001C6.29999 26.8001 6.70001 26.7001 7.10001 26.6001C9.20001 26.0001 11.4 25.4001 13.5 24.8001C13.9 24.7001 14.3 24.6001 14.6 24.5001V28.1001C16.6 27.6001 18.6 27.1001 20.6 26.7001V22.3001C19.9 21.3001 19.2 20.2001 18.5 19.1001C18 19.2001 17.5 19.4001 17 19.5001H16.9C12.6 20.5001 8.40001 21.7001 4.20001 23.0001C4.00001 23.0001 3.90001 23.1001 3.70001 23.1001C3.20001 23.2001 2.60001 23.4001 2.10001 23.6001C1.40001 25.1001 0.7 26.6001 0 28.0001V36.8001C1.1 37.5001 2.10001 38.3001 3.20001 39.0001C4.10001 38.7001 4.90002 38.4001 5.80002 38.2001C8.50002 37.4001 11.2 36.7001 13.8 36.0001C14.1 35.9001 14.4 35.9001 14.7 35.8001V42.6001C14.3 42.7001 13.9 42.8001 13.6 42.9001C11.4 43.5001 9.2 44.0001 7 44.7001C6.6 44.8001 6.19999 44.9001 5.89999 45.0001V41.4001C3.89999 42.0001 2 42.6001 0 43.2001V47.6001C0.7 48.6001 1.40001 49.6001 2.10001 50.6001C2.60001 50.5001 3.10001 50.3001 3.60001 50.1001C3.80001 50.0001 3.90001 50.0001 4.10001 50.0001C8.40001 48.7001 12.7 47.5001 17 46.5001C17.6 46.4001 18.1 46.2001 18.6 46.1001C19.3 44.7001 20 43.3001 20.7 41.9001V32.8001C19.6 32.0001 18.6 31.1001 17.5 30.3001C16.4 30.5001 15.5 30.8001 14.5 31.0001Z" fill="black"/>
<path d="M137.9 38.5C136.8 37.1 135.8 35.7 134.7 34.3C133.8 34 132.8 33.7 131.9 33.4C129.3 32.6 126.7 31.9 124.1 31.3C123.8 31.2 123.5 31.2 123.3 31.1V24.5C123.7 24.6 124.1 24.7 124.4 24.8C126.5 25.4 128.7 25.9 130.8 26.6C131.2 26.7 131.6 26.8 131.9 26.9V30.4C133.9 31 135.8 31.6 137.8 32.2V27.8C137.1 26.4 136.4 24.9 135.8 23.5C135.3 23.4 134.8 23.2 134.3 23C134.3 23 134.3 23 134.2 23C130 21.7 125.8 20.5 121.5 19.5C121.3 19.4 121.2 19.4 121 19.4C120.4 19.3 119.9 19.1 119.4 19C118.7 20.1 117.9 21.2 117.2 22.3V31.1C118.3 32.4 119.3 33.7 120.4 35C121.3 35.2 122.2 35.4 123 35.6C125.7 36.3 128.4 37 131.1 37.8C131.4 37.9 131.7 38 131.9 38V44.8C131.5 44.7 131.1 44.6 130.8 44.5C128.6 43.9 126.4 43.3 124.2 42.7C123.8 42.6 123.4 42.5 123.1 42.4V38.8C121.1 38.3 119.1 37.8 117.1 37.4V41.8C117.8 43.2 118.5 44.6 119.2 46C119.7 46.1 120.3 46.2 120.7 46.4C120.9 46.4 121 46.5 121.2 46.5C125.6 47.6 129.9 48.7 134.2 50C134.8 50.1 135.3 50.3 135.7 50.5C136.4 49.5 137.8 47.4 137.8 47.4C137.9 47.5 137.9 41.5 137.9 38.5Z" fill="black"/>
<path d="M41.8002 20.6V28.2C41.3002 28.3 40.9002 28.3 40.4002 28.4C37.8002 28.8 35.2002 29.1 32.6002 29.5V20.5C35.2002 20.1 37.8002 19.7 40.4002 19.4C40.9002 19.3 41.3002 19.3 41.8002 19.2V20.6ZM44.0002 14.7C43.8002 14.7 43.7002 14.7 43.5002 14.8C37.9002 15.4 32.2002 16.3 26.7002 17.4V44.4C28.7002 44 30.7002 43.6 32.8002 43.3V33.9C36.4002 33.3 40.0002 32.8 43.6002 32.4C43.8002 32.4 43.9002 32.4 44.1002 32.3C44.6002 32.2 45.2002 32.2 45.7002 32.1C46.5002 30.7 47.2002 29.3 48.0002 27.9V18.2C47.2002 17 46.5002 15.7 45.7002 14.5C45.0002 14.5 44.5002 14.6 44.0002 14.7Z" fill="black"/>
<path d="M103.6 28.2C101 27.8 98.2998 27.4 95.6998 27.1V19.1C98.3998 19.4 101 19.8 103.7 20.2C104.1 20.3 104.6 20.3 105 20.4V28.4C104.6 28.3 104.1 28.3 103.6 28.2ZM109 31.2C109.7 30.9 110.4 30.7 111.2 30.4V21.1C109.9 19.6 108.7 18.1 107.4 16.6C101.6 15.6 95.6998 14.8 89.7998 14.3V41.3C91.7998 41.5 93.8998 41.7 95.8998 41.9V31.3C97.3998 31.5 98.9998 31.7 100.6 31.9C101.1 32 101.7 32 102.1 32.1C103.2 32.2 104.2 32.5 105.2 32.6V43.2C105.3 43.2 105.4 43.3 105.5 43.3C107.4 43.6 109.3 43.9 111.2 44.3V32.8C110.4 32.3 109.7 31.8 109 31.2Z" fill="black"/>
<path d="M25.3998 7.6001C24.4998 7.7001 23.6998 7.9001 22.8998 8.1001C22.7998 8.1001 22.6998 8.10007 22.5998 8.20007V6.00012C22.6998 6.00012 22.8998 6.00009 22.9998 5.90009C23.6998 5.80009 24.3998 5.60012 25.0998 5.50012C25.1998 5.50012 25.3998 5.50009 25.4998 5.40009V6.50012C26.0998 6.40012 26.7998 6.3001 27.4998 6.1001V4.70007C27.2998 4.30007 27.0998 4.0001 26.7998 3.6001C26.5998 3.6001 26.4998 3.70007 26.2998 3.70007C24.8998 4.00007 23.4998 4.20012 22.0998 4.50012H21.9998C21.7998 4.50012 21.5998 4.6001 21.4998 4.6001C21.2998 5.1001 20.9998 5.50012 20.7998 6.00012V8.90009C21.1998 9.20009 21.4998 9.40007 21.8998 9.70007L22.7998 9.50012C23.6998 9.30012 24.5998 9.20012 25.3998 9.00012C25.4998 9.00012 25.5998 9.00012 25.6998 9.00012V11.2001C25.5998 11.2001 25.4998 11.2001 25.2998 11.3001C24.5998 11.4001 23.7998 11.6001 23.0998 11.7001C22.9998 11.7001 22.8998 11.7001 22.6998 11.8001V10.7001C22.0998 10.8001 21.3998 10.9001 20.7998 11.1001V12.5001C20.9998 12.9001 21.1998 13.2001 21.4998 13.5001C21.6998 13.5001 21.7998 13.4001 21.9998 13.4001C22.0998 13.4001 22.0998 13.4001 22.1998 13.4001C23.5998 13.1001 24.9998 12.8001 26.3998 12.6001C26.5998 12.6001 26.7998 12.5001 26.8998 12.5001C27.0998 12.1001 27.3998 11.6001 27.5998 11.2001V8.20007C27.1998 7.90007 26.8998 7.60009 26.4998 7.40009C25.9998 7.50009 25.6998 7.5001 25.3998 7.6001Z" fill="black"/>
<path d="M32.4002 8.09998C32.8002 6.69998 33.1002 5.19995 33.5002 3.69995C33.9002 4.99995 34.2002 6.39999 34.6002 7.79999C33.8002 7.89999 33.1002 7.99998 32.4002 8.09998ZM32.1002 2.89996C31.3002 5.89996 30.5002 9 29.7002 12C30.3002 11.9 30.9002 11.8 31.6002 11.7C31.8002 11 31.9002 10.3 32.1002 9.69995C33.0002 9.59995 34.0002 9.39999 35.0002 9.29999C35.2002 9.89999 35.3002 10.6 35.5002 11.2C36.1002 11.1 36.8002 11 37.5002 10.9C36.7002 8.09996 35.9002 5.3 35.1002 2.5C34.0002 2.6 33.1002 2.69996 32.1002 2.89996Z" fill="black"/>
<path d="M44.8001 7C43.8001 5.2 42.8001 3.3 41.7001 1.5C41.0001 1.6 40.3001 1.59995 39.6001 1.69995V10.5C40.2001 10.4 40.8001 10.4 41.4001 10.3V4.39996C42.4001 6.19996 43.4001 8.1 44.4001 10C45.1001 9.9 45.8001 9.89999 46.5001 9.79999V1C45.9001 1.1 45.3001 1.09995 44.7001 1.19995V7H44.8001Z" fill="black"/>
<path d="M55.5999 5.70001C55.9999 4.30001 56.2999 2.80002 56.6999 1.40002C57.0999 2.80002 57.3999 4.20004 57.7999 5.60004C56.9999 5.60004 56.2999 5.60001 55.5999 5.70001ZM55.2999 0.400024C54.4999 3.40002 53.6999 6.40005 52.8999 9.30005C53.4999 9.30005 54.0999 9.20001 54.7999 9.20001C54.9999 8.60001 55.0999 7.90001 55.2999 7.20001C56.2999 7.10001 57.1999 7.10004 58.1999 7.10004C58.3999 7.80004 58.5999 8.40004 58.6999 9.10004C59.3999 9.10004 59.9999 9.00006 60.6999 9.00006C59.8999 6.10006 59.0999 3.20005 58.2999 0.300049C57.1999 0.300049 56.1999 0.300024 55.2999 0.400024Z" fill="black"/>
<path d="M68.6 5.79999C67.6 3.79999 66.5 1.9 65.5 0C64.8 0 64.1 0 63.5 0V8.79999C64.1 8.79999 64.6 8.79999 65.2 8.79999V2.89996C66.2 4.89996 67.2 6.79995 68.2 8.69995H70.3V0H68.6V5.79999Z" fill="black"/>
<path d="M73.2002 1.59998C74.0002 1.59998 74.8002 1.69995 75.6002 1.69995V8.89996C76.2002 8.99996 76.9002 9 77.6002 9V1.79999C78.4002 1.89999 79.2002 1.89996 80.0002 1.89996V0.399963C77.7002 0.299963 75.5002 0.199951 73.2002 0.199951V1.59998Z" fill="black"/>
<path d="M97.9002 7.59998C96.9002 5.49998 95.9002 3.49996 94.8002 1.39996C94.1002 1.29996 93.4002 1.29995 92.7002 1.19995V10C93.3002 10.1 93.9002 10.1 94.5002 10.2V4.29999C95.5002 6.39999 96.5002 8.4 97.5002 10.5C98.2002 10.6 98.9002 10.7 99.5002 10.8V2C98.9002 1.9 98.4002 1.89999 97.8002 1.79999L97.9002 7.59998Z" fill="black"/>
<path d="M102.4 3.70001C102.9 3.80001 103.4 3.80002 103.9 3.90002V10.0001C103.4 9.90006 102.9 9.90005 102.4 9.80005V11.1C104 11.3 105.7 11.6 107.3 11.9V10.6C106.8 10.5 106.3 10.5 105.8 10.4V4.30005C106.3 4.40005 106.8 4.40006 107.3 4.50006V3.10004C105.7 2.90004 104 2.60005 102.4 2.30005V3.70001Z" fill="black"/>
<path d="M87.8998 2.80011V8.1001C87.6998 8.1001 87.5998 8.1001 87.3998 8.1001C86.6998 8.0001 85.9998 8.00012 85.2998 8.00012C85.0998 8.00012 84.9998 8.00012 84.7998 8.00012V2.20007C84.9998 2.20007 85.0998 2.20007 85.2998 2.20007C85.9998 2.30007 86.6998 2.30011 87.3998 2.30011C87.5998 2.30011 87.6998 2.30011 87.8998 2.30011V2.80011ZM89.0998 0.900085C88.8998 0.900085 88.6998 0.900085 88.5998 0.900085C87.1998 0.800085 85.7998 0.700098 84.3998 0.600098H84.1998C83.9998 0.600098 83.7998 0.600098 83.5998 0.600098C83.2998 1.0001 83.0998 1.40011 82.7998 1.80011V8.00012C83.0998 8.40012 83.2998 8.90011 83.5998 9.30011C83.7998 9.30011 83.9998 9.40009 84.1998 9.40009H84.3998C85.7998 9.50009 87.1998 9.60007 88.5998 9.70007C88.7998 9.70007 88.9998 9.70007 89.0998 9.70007C89.3998 9.30007 89.5998 8.90012 89.8998 8.50012V2.30011C89.5998 1.80011 89.3998 1.30009 89.0998 0.900085Z" fill="black"/>
<path d="M115.2 6.5V11.8C115 11.8 114.9 11.7 114.7 11.7C114 11.6 113.3 11.5 112.7 11.3C112.5 11.2 112.4 11.2 112.2 11.2V5.39996C112.4 5.49996 112.5 5.5 112.7 5.5C113.4 5.6 114.1 5.79996 114.7 5.89996C114.9 5.89996 115.1 6 115.2 6V6.5ZM117.1 6.19995C116.9 5.69995 116.6 5.19995 116.4 4.69995C116.2 4.69995 116 4.59998 115.8 4.59998C114.4 4.29998 113.1 3.99999 111.6 3.79999C111.5 3.79999 111.5 3.79999 111.4 3.79999C111.2 3.79999 111 3.69995 110.9 3.69995C110.6 4.09995 110.4 4.49996 110.2 4.89996V11.1C110.5 11.6 110.7 12 110.9 12.5C111.1 12.5 111.3 12.6 111.4 12.6C111.5 12.6 111.5 12.6 111.6 12.6C113 12.9 114.4 13.1 115.8 13.4C116 13.5 116.2 13.5 116.4 13.5C116.6 13.1 116.9 12.7 117.1 12.3V6.19995Z" fill="black"/>
<path d="M58.4 23.2L51.3 35.9L52.5 38.8H56.9L54.9 43.9L51.1 39.8L51.5 45.9L45 46.1L50.2 49.8L46.5 55.3L52.5 53.4L54.9 59.3L56.8 52.8L63.5 54.5L59.2 49.6L64.5 45.2L59 45.5L64.9 38.8H72.7L81.4 23.5V14.2H76.5L73.7 19.2L73.2 23.2L68.2 32.1H61.7L66.6 23.5V14.2H61.5L58.8 19.2L58.4 23.2Z" fill="black"/>
<path d="M79.5 15.6001H77.3L75.5 18.7001H77.9L79.5 15.6001Z" fill="#C4CED4"/>
<path d="M64.8001 15.6001H62.4001L60.6001 18.7001H63.2001L64.8001 15.6001Z" fill="#C4CED4"/>
<path d="M60.2001 35.2L55.1001 46.8L52.8001 44.3L53.1001 47.4L49.6001 47.6L52.4001 49.5L50.5001 52.4L53.6001 51.3L54.8001 54.4L55.8001 51.1L59.3001 52L57.0001 49.4L59.8001 47.1L55.9001 47.3H55.7001L63.7001 35.2H70.6001L76.8001 24.2H74.4001L69.2001 33.3H56.8001L62.0001 24.2H59.5001L53.3001 35.2H60.2001Z" fill="#C4CED4"/>
<path d="M62.6 19.8999H60.3L60 22.5999H62.3L62.6 19.8999Z" fill="#C4CED4"/>
<path d="M77.3999 19.8999H75.1999L74.8999 22.5999H77.0999L77.3999 19.8999Z" fill="#C4CED4"/>
<path d="M54 50.2C54.6 50.2 55 49.8 55 49.2C55 48.6 54.6 48.2 54 48.2C53.4 48.2 53 48.7 53 49.3C53 49.8 53.5 50.2 54 50.2Z" fill="black"/>
</svg>

<?xml version="1.0" encoding="UTF-8"?>
<svg id="Calque_1" xmlns="http://www.w3.org/2000/svg" version="1.1" viewBox="0 0 138 63">
  <!-- Generator: Adobe Illustrator 30.2.1, SVG Export Plug-In . SVG Version: 2.1.1 Build 1)  -->
  <defs>
    <style>
      .st0 {
        fill: #c4ced4;
      }

      .st1 {
        fill: #fff;
      }
    </style>
  </defs>
  <path class="st1" d="M52.4,39.9h3l-.9,2.3-2.1-2.3ZM48.8,50.1l-4.8,7.1,7.9-2.6,3.2,7.7,2.4-8.2,8.9,2.3-5.7-6.6,6.9-5.7-6.1.4,4.1-4.6h7.9l9.1-16.1v-10.6h-6.4l-3.1,5.5-.6,4.1-4.6,8.2h-4.2l4.2-7.3v-10.4h-6.7l-3,5.4-.5,4.2-7.3,13,1.1,2.9-1.4-1.5.6,7.8-8.4.4,6.5,4.6Z"/>
  <path class="st1" d="M14.5,31c-2.6.7-5.3,1.4-7.8,2.1-.3.1-.6.2-.8.3v-6.5c.4-.1.8-.2,1.2-.3,2.1-.6,4.3-1.2,6.4-1.8.4-.1.8-.2,1.1-.3v3.6c2-.5,4-1,6-1.4v-4.4c-.7-1-1.4-2.1-2.1-3.2-.5.1-1,.3-1.5.4h-.1c-4.3,1-8.5,2.2-12.7,3.5-.2,0-.3.1-.5.1-.5.1-1.1.3-1.6.5-.7,1.5-1.4,3-2.1,4.4v8.8c1.1.7,2.1,1.5,3.2,2.2.9-.3,1.7-.6,2.6-.8,2.7-.8,5.4-1.5,8-2.2.3-.1.6-.1.9-.2v6.8c-.4.1-.8.2-1.1.3-2.2.6-4.4,1.1-6.6,1.8-.4.1-.8.2-1.1.3v-3.6c-2,.6-3.9,1.2-5.9,1.8v4.4c.7,1,1.4,2,2.1,3,.5-.1,1-.3,1.5-.5.2-.1.3-.1.5-.1,4.3-1.3,8.6-2.5,12.9-3.5.6-.1,1.1-.3,1.6-.4.7-1.4,1.4-2.8,2.1-4.2v-9.1c-1.1-.8-2.1-1.7-3.2-2.5-1.1.2-2,.5-3,.7Z"/>
  <path class="st1" d="M137.9,38.5c-1.1-1.4-2.1-2.8-3.2-4.2-.9-.3-1.9-.6-2.8-.9-2.6-.8-5.2-1.5-7.8-2.1-.3-.1-.6-.1-.8-.2v-6.6c.4.1.8.2,1.1.3,2.1.6,4.3,1.1,6.4,1.8.4.1.8.2,1.1.3v3.5c2,.6,3.9,1.2,5.9,1.8v-4.4c-.7-1.4-1.4-2.9-2-4.3-.5-.1-1-.3-1.5-.5h-.1c-4.2-1.3-8.4-2.5-12.7-3.5-.2-.1-.3-.1-.5-.1-.6-.1-1.1-.3-1.6-.4-.7,1.1-1.5,2.2-2.2,3.3v8.8c1.1,1.3,2.1,2.6,3.2,3.9.9.2,1.8.4,2.6.6,2.7.7,5.4,1.4,8.1,2.2.3.1.6.2.8.2v6.8c-.4-.1-.8-.2-1.1-.3-2.2-.6-4.4-1.2-6.6-1.8-.4-.1-.8-.2-1.1-.3v-3.6c-2-.5-4-1-6-1.4v4.4c.7,1.4,1.4,2.8,2.1,4.2.5.1,1.1.2,1.5.4.2,0,.3.1.5.1,4.4,1.1,8.7,2.2,13,3.5.6.1,1.1.3,1.5.5.7-1,2.1-3.1,2.1-3.1.1.1.1-5.9.1-8.9Z"/>
  <path class="st1" d="M41.8,20.6v7.6c-.5.1-.9.1-1.4.2-2.6.4-5.2.7-7.8,1.1v-9c2.6-.4,5.2-.8,7.8-1.1.5-.1.9-.1,1.4-.2v1.4ZM44,14.7c-.2,0-.3,0-.5.1-5.6.6-11.3,1.5-16.8,2.6v27c2-.4,4-.8,6.1-1.1v-9.4c3.6-.6,7.2-1.1,10.8-1.5.2,0,.3,0,.5-.1.5-.1,1.1-.1,1.6-.2.8-1.4,1.5-2.8,2.3-4.2v-9.7c-.8-1.2-1.5-2.5-2.3-3.7-.7,0-1.2.1-1.7.2Z"/>
  <path class="st1" d="M103.6,28.2c-2.6-.4-5.3-.8-7.9-1.1v-8c2.7.3,5.3.7,8,1.1.4.1.9.1,1.3.2v8c-.4-.1-.9-.1-1.4-.2ZM109,31.2c.7-.3,1.4-.5,2.2-.8v-9.3c-1.3-1.5-2.5-3-3.8-4.5-5.8-1-11.7-1.8-17.6-2.3v27c2,.2,4.1.4,6.1.6v-10.6c1.5.2,3.1.4,4.7.6.5.1,1.1.1,1.5.2,1.1.1,2.1.4,3.1.5v10.6c.1,0,.2.1.3.1,1.9.3,3.8.6,5.7,1v-11.5c-.8-.5-1.5-1-2.2-1.6Z"/>
  <path class="st1" d="M25.4,7.6c-.9.1-1.7.3-2.5.5-.1,0-.2,0-.3.1v-2.2c.1,0,.3,0,.4-.1.7-.1,1.4-.3,2.1-.4.1,0,.3,0,.4-.1v1.1c.6-.1,1.3-.2,2-.4v-1.4c-.2-.4-.4-.7-.7-1.1-.2,0-.3.1-.5.1-1.4.3-2.8.5-4.2.8h-.1c-.2,0-.4.1-.5.1-.2.5-.5.9-.7,1.4v2.9c.4.3.7.5,1.1.8l.9-.2c.9-.2,1.8-.3,2.6-.5h.3v2.2c-.1,0-.2,0-.4.1-.7.1-1.5.3-2.2.4-.1,0-.2,0-.4.1v-1.1c-.6.1-1.3.2-1.9.4v1.4c.2.4.4.7.7,1,.2,0,.3-.1.5-.1h.2c1.4-.3,2.8-.6,4.2-.8.2,0,.4-.1.5-.1.2-.4.5-.9.7-1.3v-3c-.4-.3-.7-.6-1.1-.8-.5.1-.8.1-1.1.2Z"/>
  <path class="st1" d="M32.4,8.1c.4-1.4.7-2.9,1.1-4.4.4,1.3.7,2.7,1.1,4.1-.8.1-1.5.2-2.2.3ZM32.1,2.9c-.8,3-1.6,6.1-2.4,9.1.6-.1,1.2-.2,1.9-.3.2-.7.3-1.4.5-2,.9-.1,1.9-.3,2.9-.4.2.6.3,1.3.5,1.9.6-.1,1.3-.2,2-.3-.8-2.8-1.6-5.6-2.4-8.4-1.1.1-2,.2-3,.4Z"/>
  <path class="st1" d="M44.8,7c-1-1.8-2-3.7-3.1-5.5-.7.1-1.4.1-2.1.2v8.8c.6-.1,1.2-.1,1.8-.2v-5.9c1,1.8,2,3.7,3,5.6.7-.1,1.4-.1,2.1-.2V1c-.6.1-1.2.1-1.8.2v5.8h.1Z"/>
  <path class="st1" d="M55.6,5.7c.4-1.4.7-2.9,1.1-4.3.4,1.4.7,2.8,1.1,4.2-.8,0-1.5,0-2.2.1ZM55.3.4c-.8,3-1.6,6-2.4,8.9.6,0,1.2-.1,1.9-.1.2-.6.3-1.3.5-2,1-.1,1.9-.1,2.9-.1.2.7.4,1.3.5,2,.7,0,1.3-.1,2-.1-.8-2.9-1.6-5.8-2.4-8.7-1.1,0-2.1,0-3,.1Z"/>
  <path class="st1" d="M68.6,5.8c-1-2-2.1-3.9-3.1-5.8h-2v8.8h1.7V2.9c1,2,2,3.9,3,5.8h2.1V0h-1.7v5.8Z"/>
  <path class="st1" d="M73.2,1.6c.8,0,1.6.1,2.4.1v7.2c.6.1,1.3.1,2,.1V1.8c.8.1,1.6.1,2.4.1V.4c-2.3-.1-4.5-.2-6.8-.2v1.4Z"/>
  <path class="st1" d="M97.9,7.6c-1-2.1-2-4.1-3.1-6.2-.7-.1-1.4-.1-2.1-.2v8.8c.6.1,1.2.1,1.8.2v-5.9c1,2.1,2,4.1,3,6.2.7.1,1.4.2,2,.3V2c-.6-.1-1.1-.1-1.7-.2l.1,5.8Z"/>
  <path class="st1" d="M102.4,3.7c.5.1,1,.1,1.5.2v6.1c-.5-.1-1-.1-1.5-.2v1.3c1.6.2,3.3.5,4.9.8v-1.3c-.5-.1-1-.1-1.5-.2v-6.1c.5.1,1,.1,1.5.2v-1.4c-1.6-.2-3.3-.5-4.9-.8v1.4Z"/>
  <path class="st1" d="M87.9,2.8v5.3h-.5c-.7-.1-1.4-.1-2.1-.1h-.5V2.2h.5c.7.1,1.4.1,2.1.1h.5v.5ZM89.1.9h-.5c-1.4-.1-2.8-.2-4.2-.3h-.8c-.3.4-.5.8-.8,1.2v6.2c.3.4.5.9.8,1.3.2,0,.4.1.6.1h.2c1.4.1,2.8.2,4.2.3h.5c.3-.4.5-.8.8-1.2V2.3c-.3-.5-.5-1-.8-1.4Z"/>
  <path class="st1" d="M115.2,6.5v5.3c-.2,0-.3-.1-.5-.1-.7-.1-1.4-.2-2-.4-.2-.1-.3-.1-.5-.1v-5.8c.2.1.3.1.5.1.7.1,1.4.3,2,.4.2,0,.4.1.5.1v.5ZM117.1,6.2c-.2-.5-.5-1-.7-1.5-.2,0-.4-.1-.6-.1-1.4-.3-2.7-.6-4.2-.8h-.2c-.2,0-.4-.1-.5-.1-.3.4-.5.8-.7,1.2v6.2c.3.5.5.9.7,1.4.2,0,.4.1.5.1h.2c1.4.3,2.8.5,4.2.8.2.1.4.1.6.1.2-.4.5-.8.7-1.2v-6.1Z"/>
  <path d="M58.4,23.2l-7.1,12.7,1.2,2.9h4.4l-2,5.1-3.8-4.1.4,6.1-6.5.2,5.2,3.7-3.7,5.5,6-1.9,2.4,5.9,1.9-6.5,6.7,1.7-4.3-4.9,5.3-4.4-5.5.3,5.9-6.7h7.8l8.7-15.3v-9.3h-4.9l-2.8,5-.5,4-5,8.9h-6.5l4.9-8.6v-9.3h-5.1l-2.7,5-.4,4Z"/>
  <path class="st0" d="M79.5,15.6h-2.2l-1.8,3.1h2.4l1.6-3.1Z"/>
  <path class="st0" d="M64.8,15.6h-2.4l-1.8,3.1h2.6l1.6-3.1Z"/>
  <path class="st0" d="M60.2,35.2l-5.1,11.6-2.3-2.5.3,3.1-3.5.2,2.8,1.9-1.9,2.9,3.1-1.1,1.2,3.1,1-3.3,3.5.9-2.3-2.6,2.8-2.3-3.9.2h-.2l8-12.1h6.9l6.2-11h-2.4l-5.2,9.1h-12.4l5.2-9.1h-2.5l-6.2,11h6.9Z"/>
  <path class="st0" d="M62.6,19.9h-2.3l-.3,2.7h2.3l.3-2.7Z"/>
  <path class="st0" d="M77.4,19.9h-2.2l-.3,2.7h2.2l.3-2.7Z"/>
  <path d="M54,50.2c.6,0,1-.4,1-1s-.4-1-1-1-1,.5-1,1.1c0,.5.5.9,1,.9Z"/>
</svg>
